lib/brands/logos/google-pay.svg

<svg xmlns="http://www.w3.org/2000/svg" fill="none" aria-hidden="true" viewBox="0 0 134 53"><g id="Google pay" clip-path="url(#clip0_2757_247967)"><path id="Vector" fill="#5F6368" d="M63.1235 25.8923V41.4284H58.1948V3.06129H71.2665C72.8268 3.0287 74.3781 3.30543 75.8309 3.87551C77.2837 4.4456 78.6092 5.29775 79.731 6.38279C80.864 7.40195 81.7658 8.65184 82.3756 10.0485C82.9855 11.4451 83.2893 12.9561 83.2667 14.4799C83.2992 16.0118 83 17.5327 82.3897 18.9382C81.7794 20.3437 80.8724 21.6007 79.731 22.6229C77.4452 24.8025 74.6237 25.8913 71.2665 25.8893H63.1235V25.8923ZM63.1235 7.78485V21.178H71.389C72.2951 21.2048 73.1969 21.0423 74.0366 20.7007C74.8763 20.3591 75.6355 19.846 76.2656 19.1943C76.8924 18.5849 77.3906 17.856 77.7308 17.0507C78.0711 16.2454 78.2463 15.3801 78.2463 14.5059C78.2463 13.6317 78.0711 12.7664 77.7308 11.9611C77.3906 11.1558 76.8924 10.4269 76.2656 9.81755C75.6434 9.15205 74.8868 8.62639 74.0461 8.27542C73.2054 7.92446 72.2996 7.7562 71.389 7.78179H63.1235V7.78485Z"/><path id="Vector_2" fill="#5F6368" d="M94.6241 14.3207C98.267 14.3207 101.143 15.2942 103.251 17.2411C105.359 19.1881 106.412 21.8576 106.41 25.2495V41.4283H101.696V37.7854H101.481C99.4405 40.7855 96.7261 42.2855 93.3383 42.2855C90.4464 42.2855 88.027 41.4283 86.08 39.714C85.1457 38.9272 84.3986 37.9418 83.8934 36.8297C83.3882 35.7175 83.1375 34.5067 83.1595 33.2853C83.1595 30.569 84.1861 28.4087 86.2392 26.8046C88.2923 25.2005 91.0332 24.3964 94.4618 24.3923C97.3884 24.3923 99.7986 24.928 101.693 25.9995V24.8729C101.698 24.0403 101.518 23.2169 101.166 22.4624C100.814 21.7078 100.299 21.0411 99.6568 20.5106C98.3535 19.3347 96.6549 18.6931 94.8996 18.7136C92.1465 18.7136 89.9678 19.8749 88.3637 22.1974L84.0228 19.4636C86.4106 16.035 89.9444 14.3207 94.6241 14.3207ZM88.2474 33.3925C88.2441 34.0197 88.3907 34.6387 88.6751 35.1978C88.9594 35.7569 89.3733 36.24 89.8821 36.6068C90.9722 37.4643 92.3251 37.9185 93.7118 37.8926C95.7916 37.8891 97.7852 37.0613 99.2558 35.5905C100.888 34.0537 101.705 32.2506 101.705 30.1812C100.168 28.9567 98.0251 28.3444 95.2761 28.3444C93.274 28.3444 91.6046 28.8271 90.2678 29.7924C88.9178 30.772 88.2474 31.9629 88.2474 33.3925V33.3925Z"/><path id="Vector_3" fill="#5F6368" d="M133.472 15.1779L117.015 53H111.927L118.034 39.7661L107.212 15.1779H112.57L120.391 34.0354H120.498L128.106 15.1779H133.472Z"/><path id="Vector_4" fill="#4285F4" d="M43.2067 22.5433C43.2086 21.0413 43.0816 19.5419 42.8271 18.0616H22.041V26.5505H33.9463C33.7027 27.9063 33.1871 29.1988 32.4305 30.3499C31.674 31.5011 30.6921 32.4871 29.5442 33.2486V38.7589H36.6495C40.8097 34.9231 43.2067 29.2506 43.2067 22.5433Z"/><path id="Vector_5" fill="#34A853" d="M22.0414 44.0825C27.9895 44.0825 32.9977 42.1294 36.6498 38.762L29.5446 33.2516C27.567 34.5925 25.02 35.3578 22.0414 35.3578C16.2923 35.3578 11.4126 31.4822 9.66767 26.2597H2.34814V31.9384C4.18267 35.5889 6.99572 38.6577 10.4732 40.8021C13.9507 42.9466 17.9558 44.0823 22.0414 44.0825V44.0825Z"/><path id="Vector_6" fill="#FBBC04" d="M9.66751 26.2597C8.74502 23.523 8.74502 20.5594 9.66751 17.8228V12.1441H2.34798C0.80471 15.215 0.000976562 18.6043 0.000976562 22.0412C0.000976562 25.4781 0.80471 28.8674 2.34798 31.9384L9.66751 26.2597Z"/><path id="Vector_7" fill="#EA4335" d="M22.0414 8.72467C25.1847 8.67332 28.2219 9.86094 30.4967 12.0309L36.7876 5.73992C32.7985 1.99314 27.5138 -0.0639049 22.0414 1.17851e-05C17.9558 0.000197988 13.9507 1.13592 10.4732 3.28037C6.99572 5.42482 4.18267 8.49361 2.34814 12.1441L9.66767 17.8228C11.4126 12.6003 16.2923 8.72467 22.0414 8.72467Z"/></g><defs><clipPath id="clip0_2757_247967"><rect width="133.463" height="53" fill="white"/></clipPath></defs></svg>

<svg xmlns="http://www.w3.org/2000/svg" fill="none" aria-hidden="true" viewBox="0 0 134 53"><g clip-path="url(#a)"><path fill="#5F6368" d="M63.123 25.892v15.536h-4.928V3.061h13.071a11.82 11.82 0 0 1 8.465 3.322 10.677 10.677 0 0 1 3.536 8.097 10.628 10.628 0 0 1-3.536 8.143c-2.286 2.18-5.107 3.268-8.465 3.266h-8.143v.003Zm0-18.107v13.393h8.266a6.515 6.515 0 0 0 4.877-1.984 6.539 6.539 0 0 0 0-9.376 6.43 6.43 0 0 0-4.877-2.036h-8.265v.003Zm31.501 6.535c3.643 0 6.519.974 8.627 2.921 2.108 1.947 3.161 4.617 3.159 8.009v16.178h-4.714v-3.643h-.215c-2.04 3-4.755 4.5-8.143 4.5-2.892 0-5.311-.857-7.258-2.571a8.21 8.21 0 0 1-2.92-6.429c0-2.716 1.026-4.876 3.08-6.48 2.052-1.604 4.793-2.409 8.222-2.413 2.926 0 5.337.536 7.231 1.608v-1.127a5.622 5.622 0 0 0-2.036-4.362 6.98 6.98 0 0 0-4.757-1.797c-2.754 0-4.932 1.16-6.536 3.483l-4.341-2.733c2.388-3.429 5.921-5.143 10.601-5.143Zm-6.377 19.072a3.936 3.936 0 0 0 1.635 3.215 6.012 6.012 0 0 0 3.83 1.286 7.859 7.859 0 0 0 5.544-2.303c1.632-1.536 2.449-3.34 2.449-5.409-1.537-1.224-3.68-1.837-6.429-1.837-2.002 0-3.671.483-5.008 1.448-1.35.98-2.02 2.17-2.02 3.6Zm45.225-18.214L117.015 53h-5.088l6.107-13.234-10.822-24.588h5.358l7.821 18.857h.107l7.608-18.857h5.366Z"/><path fill="#4285F4" d="M43.207 22.543a26.254 26.254 0 0 0-.38-4.481H22.041v8.488h11.905a10.202 10.202 0 0 1-4.402 6.699v5.51h7.106c4.16-3.836 6.557-9.508 6.557-16.216Z"/><path fill="#34A853" d="M22.041 44.083c5.948 0 10.957-1.954 14.609-5.321l-7.105-5.51c-1.978 1.34-4.525 2.106-7.504 2.106-5.749 0-10.628-3.876-12.373-9.098h-7.32v5.678a22.041 22.041 0 0 0 19.693 12.145Z"/><path fill="#FBBC04" d="M9.668 26.26a13.206 13.206 0 0 1 0-8.437v-5.679h-7.32a22.041 22.041 0 0 0 0 19.794l7.32-5.678Z"/><path fill="#EA4335" d="M22.041 8.725a11.967 11.967 0 0 1 8.456 3.306l6.29-6.291A21.178 21.178 0 0 0 22.042 0 22.041 22.041 0 0 0 2.348 12.144l7.32 5.679c1.745-5.223 6.624-9.098 12.373-9.098Z"/></g><defs><clipPath id="a"><path fill="#fff" d="M0 0h133.463v53H0z"/></clipPath></defs></svg>
